remix/Map/space-ship-fill.svg

<svg viewBox="0 0 24 24" fill="currentColor" xmlns="http://www.w3.org/2000/svg"><path d="M2.87988 18.049C4.23015 12.0557 7.07526 6.6285 11.003 2.17958C11.1105 2.05778 11.2465 1.90742 11.411 1.72851L11.411 1.72849C11.7101 1.40325 12.2162 1.38203 12.5414 1.68109C12.5579 1.69623 12.5737 1.71205 12.5888 1.72851C12.7553 1.90958 12.8929 2.06164 13.0015 2.1847C16.9268 6.63267 19.7703 12.058 21.12 18.049C18.9786 18.5004 16.7797 18.796 14.5359 18.9235L12.4472 23.101C12.3237 23.348 12.0233 23.4481 11.7763 23.3246C11.6796 23.2762 11.6011 23.1977 11.5527 23.101L9.46401 18.9235C7.22018 18.796 5.02133 18.5004 2.87988 18.049ZM11.9999 14.9954C13.6568 14.9954 14.9999 13.6523 14.9999 11.9954C14.9999 10.3386 13.6568 8.99541 11.9999 8.99541C10.3431 8.99541 8.99994 10.3386 8.99994 11.9954C8.99994 13.6523 10.3431 14.9954 11.9999 14.9954Z"/></svg>

<svg viewBox="0 0 24 24" xmlns="http://www.w3.org/2000/svg"><path fill="none" d="M0 0h24v24H0Z"/><path d="M2.88 18.05l-.001 0c1.37-6.09 4.31-11.72 8.53-16.32v0c.29-.33.8-.35 1.13-.05 .01.01.03.03.04.04 .16.18.3.33.41.45v0c3.99 4.52 6.78 9.97 8.11 15.86 -2.15.45-4.34.74-6.584.87l-2.09 4.17h-.001c-.13.24-.43.34-.68.22 -.1-.05-.18-.13-.23-.23l-2.09-4.18 -.001-.001c-2.22-.13-4.42-.42-6.59-.88ZM12 14.99v0c1.65 0 3-1.35 3-3 0-1.66-1.35-3-3-3v0c-1.66 0-3 1.34-3 3 0 1.65 1.34 3 3 3Z"/></svg>
